src/pos-icons/square-edit-outline.svg

<svg height="24" viewBox="0 0 24 24" width="24" xmlns="http://www.w3.org/2000/svg"><path d="m5 3c-1.11 0-2 .89-2 2v14a2 2 0 0 0 2 2h14a2 2 0 0 0 2-2v-7h-2v7h-14v-14h7v-2zm12.78 1c-.17 0-.35.07-.48.2l-1.22 1.21 2.5 2.5 1.22-1.21c.26-.26.26-.7 0-.95l-1.55-1.55c-.13-.13-.3-.2-.47-.2m-2.41 2.12-7.37 7.38v2.5h2.5l7.37-7.38z"/></svg>

<?xml version="1.0" encoding="UTF-8"?><!DOCTYPE svg PUBLIC "-//W3C//DTD SVG 1.1//EN" "http://www.w3.org/Graphics/SVG/1.1/DTD/svg11.dtd"><svg xmlns="http://www.w3.org/2000/svg" xmlns:xlink="http://www.w3.org/1999/xlink" version="1.1" id="mdi-square-edit-outline" width="24" height="24" viewBox="0 0 24 24"><path d="M5,3C3.89,3 3,3.89 3,5V19A2,2 0 0,0 5,21H19A2,2 0 0,0 21,19V12H19V19H5V5H12V3H5M17.78,4C17.61,4 17.43,4.07 17.3,4.2L16.08,5.41L18.58,7.91L19.8,6.7C20.06,6.44 20.06,6 19.8,5.75L18.25,4.2C18.12,4.07 17.95,4 17.78,4M15.37,6.12L8,13.5V16H10.5L17.87,8.62L15.37,6.12Z" /></svg>
